!!!OTL: Muede kehrt ein Wandersmann zurueck nach der Heimat seiner Liebe Glueck
!!!ARE: Europa, Mitteleuropa, Deutschland, Unter - Franken, Bamberg Stadt,     Neustadt a.S.
!!!SCT: D1017
!!!YEM: Copyright 1995, estate of Helmut Schaffrath.
**kern
*ICvox
*Ivox
*M4/4
*k[f#]
*G:
{8d
8d
=1
4.b
8a
8g
8f#
8g
8b
=2
2.d}
{8d
8f#
=3
4.a
8g
8f#
8a
8ee
8dd
=4
2.b}
{8g
8a
=5
8b
8dd
2dd
8cc
8b
=6
8a
8g
2e}
{8g
8f#
=7
8e
8d
8g
8f#
8g
4ee
8dd
=8
2.b}
{8g
8a
=9
8b
8dd
2dd
8cc
8b
=10
8a
8g
2e}
{8g
8f#
=11
8e
8d
8g
8f#
8g
4ee
8dd
=12
2.b}
==
!!!AGN: Liebes - Lied
!! DVA-Signatur A 190 014
!!!ONB: ESAC (Essen Associative Code) Database: DVA
!!!AMT: simple quadruple
!!!AIN: vox
!!!EED: Helmut Schaffrath
!!!EEV: 1.0
*-
!!!title: @{OTL} [@{SCT}]
